Icons/SVG/smiley.svg

<?xml version="1.0" encoding="utf-8"?> <!-- Generator: IcoMoon --> <!DOCTYPE svg PUBLIC "-//W3C//DTD SVG 1.1//EN" "http://www.w3.org/Graphics/SVG/1.1/DTD/svg11.dtd"> <svg width="512" height="512" viewBox="0 0 512 512" data-tags="smiley, emoticon, happy" fill="#000000"><g class="svgGrid" id="svgGrid"><line stroke-width="1" stroke="#B35047" x1="32" x2="32" y1="0" y2="512"></line><line stroke-width="1" stroke="#B35047" x1="64" x2="64" y1="0" y2="512"></line><line stroke-width="1" stroke="#B35047" x1="96" x2="96" y1="0" y2="512"></line><line stroke-width="1" stroke="#B35047" x1="128" x2="128" y1="0" y2="512"></line><line stroke-width="1" stroke="#B35047" x1="160" x2="160" y1="0" y2="512"></line><line stroke-width="1" stroke="#B35047" x1="192" x2="192" y1="0" y2="512"></line><line stroke-width="1" stroke="#B35047" x1="224" x2="224" y1="0" y2="512"></line><line stroke-width="1" stroke="#B35047" x1="256" x2="256" y1="0" y2="512"></line><line stroke-width="1" stroke="#B35047" x1="288" x2="288" y1="0" y2="512"></line><line stroke-width="1" stroke="#B35047" x1="320" x2="320" y1="0" y2="512"></line><line stroke-width="1" stroke="#B35047" x1="352" x2="352" y1="0" y2="512"></line><line stroke-width="1" stroke="#B35047" x1="384" x2="384" y1="0" y2="512"></line><line stroke-width="1" stroke="#B35047" x1="416" x2="416" y1="0" y2="512"></line><line stroke-width="1" stroke="#B35047" x1="448" x2="448" y1="0" y2="512"></line><line stroke-width="1" stroke="#B35047" x1="480" x2="480" y1="0" y2="512"></line><line stroke-width="1" stroke="#B35047" x1="0" x2="512" y1="32" y2="32"></line><line stroke-width="1" stroke="#B35047" x1="0" x2="512" y1="64" y2="64"></line><line stroke-width="1" stroke="#B35047" x1="0" x2="512" y1="96" y2="96"></line><line stroke-width="1" stroke="#B35047" x1="0" x2="512" y1="128" y2="128"></line><line stroke-width="1" stroke="#B35047" x1="0" x2="512" y1="160" y2="160"></line><line stroke-width="1" stroke="#B35047" x1="0" x2="512" y1="192" y2="192"></line><line stroke-width="1" stroke="#B35047" x1="0" x2="512" y1="224" y2="224"></line><line stroke-width="1" stroke="#B35047" x1="0" x2="512" y1="256" y2="256"></line><line stroke-width="1" stroke="#B35047" x1="0" x2="512" y1="288" y2="288"></line><line stroke-width="1" stroke="#B35047" x1="0" x2="512" y1="320" y2="320"></line><line stroke-width="1" stroke="#B35047" x1="0" x2="512" y1="352" y2="352"></line><line stroke-width="1" stroke="#B35047" x1="0" x2="512" y1="384" y2="384"></line><line stroke-width="1" stroke="#B35047" x1="0" x2="512" y1="416" y2="416"></line><line stroke-width="1" stroke="#B35047" x1="0" x2="512" y1="448" y2="448"></line><line stroke-width="1" stroke="#B35047" x1="0" x2="512" y1="480" y2="480"></line><rect x="0" y="0" width="512" height="512" fill="none" stroke-width="1" stroke="#B35047"></rect></g><path d="M 256.00,0.00C 114.615,0.00,0.00,114.615,0.00,256.00s 114.612,256.00, 256.00,256.00c 141.385,0.00, 256.00-114.615, 256.00-256.00S 397.385,0.00, 256.00,0.00z M 352.00,128.00 c 17.673,0.00, 32.00,14.327, 32.00,32.00c0.00,17.673-14.327,32.00-32.00,32.00s-32.00-14.327-32.00-32.00C 320.00,142.327, 334.327,128.00, 352.00,128.00z M 160.00,128.00 c 17.673,0.00, 32.00,14.327, 32.00,32.00c0.00,17.673-14.327,32.00-32.00,32.00s-32.00-14.327-32.00-32.00C 128.00,142.327, 142.327,128.00, 160.00,128.00z M 256.00,416.00 c-58.255,0.00-109.232-31.137-137.212-77.672l 27.441-16.467C 168.612,359.091, 209.396,384.00, 256.00,384.00 c 46.604,0.00, 87.386-24.909, 109.771-62.139l 27.441,16.467C 365.23,384.863, 314.255,416.00, 256.00,416.00z" ></path></svg>

<?xml version="1.0" encoding="utf-8"?> <!-- Generator: IcoMoon.io --> <!DOCTYPE svg PUBLIC "-//W3C//DTD SVG 1.1//EN" "http://www.w3.org/Graphics/SVG/1.1/DTD/svg11.dtd"> <svg width="512" height="512" viewBox="0 0 512 512" xmlns="http://www.w3.org/2000/svg" xmlns:xlink="http://www.w3.org/1999/xlink" fill="#000000"><g class="svgGrid" id="svgGrid"><line stroke-width="1" stroke="#B35047" x1="32" x2="32" y1="0" y2="512"></line><line stroke-width="1" stroke="#B35047" x1="64" x2="64" y1="0" y2="512"></line><line stroke-width="1" stroke="#B35047" x1="96" x2="96" y1="0" y2="512"></line><line stroke-width="1" stroke="#B35047" x1="128" x2="128" y1="0" y2="512"></line><line stroke-width="1" stroke="#B35047" x1="160" x2="160" y1="0" y2="512"></line><line stroke-width="1" stroke="#B35047" x1="192" x2="192" y1="0" y2="512"></line><line stroke-width="1" stroke="#B35047" x1="224" x2="224" y1="0" y2="512"></line><line stroke-width="1" stroke="#B35047" x1="256" x2="256" y1="0" y2="512"></line><line stroke-width="1" stroke="#B35047" x1="288" x2="288" y1="0" y2="512"></line><line stroke-width="1" stroke="#B35047" x1="320" x2="320" y1="0" y2="512"></line><line stroke-width="1" stroke="#B35047" x1="352" x2="352" y1="0" y2="512"></line><line stroke-width="1" stroke="#B35047" x1="384" x2="384" y1="0" y2="512"></line><line stroke-width="1" stroke="#B35047" x1="416" x2="416" y1="0" y2="512"></line><line stroke-width="1" stroke="#B35047" x1="448" x2="448" y1="0" y2="512"></line><line stroke-width="1" stroke="#B35047" x1="480" x2="480" y1="0" y2="512"></line><line stroke-width="1" stroke="#B35047" x1="0" x2="512" y1="32" y2="32"></line><line stroke-width="1" stroke="#B35047" x1="0" x2="512" y1="64" y2="64"></line><line stroke-width="1" stroke="#B35047" x1="0" x2="512" y1="96" y2="96"></line><line stroke-width="1" stroke="#B35047" x1="0" x2="512" y1="128" y2="128"></line><line stroke-width="1" stroke="#B35047" x1="0" x2="512" y1="160" y2="160"></line><line stroke-width="1" stroke="#B35047" x1="0" x2="512" y1="192" y2="192"></line><line stroke-width="1" stroke="#B35047" x1="0" x2="512" y1="224" y2="224"></line><line stroke-width="1" stroke="#B35047" x1="0" x2="512" y1="256" y2="256"></line><line stroke-width="1" stroke="#B35047" x1="0" x2="512" y1="288" y2="288"></line><line stroke-width="1" stroke="#B35047" x1="0" x2="512" y1="320" y2="320"></line><line stroke-width="1" stroke="#B35047" x1="0" x2="512" y1="352" y2="352"></line><line stroke-width="1" stroke="#B35047" x1="0" x2="512" y1="384" y2="384"></line><line stroke-width="1" stroke="#B35047" x1="0" x2="512" y1="416" y2="416"></line><line stroke-width="1" stroke="#B35047" x1="0" x2="512" y1="448" y2="448"></line><line stroke-width="1" stroke="#B35047" x1="0" x2="512" y1="480" y2="480"></line><rect x="0" y="0" width="512" height="512" fill="none" stroke-width="1" stroke="#B35047"></rect></g><path d="M 256.00,512.00c 141.385,0.00, 256.00-114.615, 256.00-256.00S 397.385,0.00, 256.00,0.00S0.00,114.615,0.00,256.00S 114.615,512.00, 256.00,512.00z M 256.00,48.00 c 114.875,0.00, 208.00,93.125, 208.00,208.00s-93.125,208.00-208.00,208.00S 48.00,370.875, 48.00,256.00S 141.125,48.00, 256.00,48.00zM 128.00,160.00 C 128.00,142.327 142.327,128.00 160.00,128.00 C 177.673,128.00 192.00,142.327 192.00,160.00 C 192.00,177.673 177.673,192.00 160.00,192.00 C 142.327,192.00 128.00,177.673 128.00,160.00 Z M 320.00,160.00 C 320.00,142.327 334.327,128.00 352.00,128.00 C 369.673,128.00 384.00,142.327 384.00,160.00 C 384.00,177.673 369.673,192.00 352.00,192.00 C 334.327,192.00 320.00,177.673 320.00,160.00 ZM 352.049,313.63 L 393.213,338.328 C 365.232,384.863 314.255,416.00 256.00,416.00 C 197.745,416.00 146.768,384.863 118.787,338.328 L 159.951,313.63 C 179.538,346.204 215.222,368.00 256.00,368.00 C 296.778,368.00 332.462,346.204 352.049,313.63 Z" ></path></svg>
